X:1
T:Si par souhait
T:Si par souhait
T:Jean de Castro
T:Source : Livre de chansons à 3 parties---Paris---A.le Roy & R.Ballard---1575. Editor : André Vierendeels (26/09/15).
T:Notes : Original clefs : G2, C2, C3 Editorial accidentals above the staff m 36 in T: "sol" notated as half note in original print 
C:Jean de Castro
%%score [ 1 [ 2 3 ] ]
L:1/8
Q:1/4=105
M:2/2
K:F
V:1 treble nm="Superius" snm="S"
V:2 treble nm="Altus" snm="A"
V:3 treble-8 nm="Tenor" snm="T"
V:1
 d4 d2 e2 | f6 e2 | d2 c2 d2 G2 | z2 G2 B2 A2 | c4 =B4 | d4 d2 e2 | f4 d4 | c2 B2 A4 | =B4 z2 d2- | %9
w: Si par sou-|hait, je|vous te- noy- e,|je vous te-|noy- e,|si par sou-|hait, je|vous te- noy-|e, se-|
 d2 c4 B2 | A4 f4- | f2 e4 d2 | ^c2 d3 c/B/ c2 | d2 A2 c2 G2 | GABc d4 | z4 z2 d2 | A2 c2 GABc | %17
w: * cre- te-|ment, bel-|* le bru-|net- * * * *|te, joy- eu- se-|ment, _ _ _ _|joy-|eu- se- ment, _ _ _|
 d4 z2 B2 | A2 F2 E4 | D2 A2 B2 A2 | c4 B4- | B4 G4- | G2 G2 ^F4 | G4 z2 g2 | f2 d2 ^f4 | %25
w: _ vous|mon- stre- roy-|e- un tour jo-|ly par|_ a-|* mou- ret-|te: la|tri- que- ba-|
 g4 z2 d2 | c2 d2 d4 | d4 z2 A2 | B2 G2 B4 | A4 z2 f2 | e2 c2 d4 | d4 z2 c2 | c2 G2 B2 A2 | %33
w: bin, la|tri- que- ba-|bin, la|tri- que- ba-|bin, gen-|til' fil- let-|te, gen-|til' fil- let- te,|
 B2 G2 G2 ^F2 | G4 z2 G2 | GABc d2 d2 | d4 z2 d2 | e4 f4- | f2 d4 d2 | c2 B2 c4 | d2 d4 A2- | %41
w: la tri- que- ba-|bin, et|puis _ _ _ _ de-|vant, je|scay bien|_ qu'en a-|vez di- set-|te, et si|
 A2 c4 G2- | G2 d4 c2 | d4 G4 | z2 c2 d2 f2 | e4 d4 | z2 d4 d2 | B2 G2 A2 A2 | =B4 z2 g2 | %49
w: _ n'en faits|_ au- cun|sem- blant,|tout est à|vo- stre,|à vo-|stre jo- li com-|mand, la|
 f2 d2 ^f4 | g4 z2 d2 | c2 d2 d4 | d4 z2 A2 | B2 G2 B4 | A4 z2 f2 | e2 c2 d4 | d4 z2 c2 | %57
w: tri- que- ba-|bin, la|tri- que- ba-|bin, la|tri- que- ba-|bin, gen-|til' fil- let-|te, gen-|
 c2 G2 B2 A2 | B2 G2 G2 ^F2 | G4 z2 G2 | GABc d2 d2 | d4 z2 d2 | G4 z2 A2 | c4 A4 | !fermata!=B8 |] %65
w: til' fil- let- te,|le tri- que- ba-|bin, et|puis _ _ _ _ de-|vant, et|puis, et|puis de-|vant.|
V:2
 z8 | z8 | z8 | z8 | G4 G2 A2 | B6 G2 | F2 F2 B4 | A2 G2 ^F4 |"^b" G4 B4 | A4 G4 | ^F4 A4- | %11
w: ||||Si par sou-|hait, je|vous te- noy-|e, te- noy-|e, se-|cre- te-|ment, bel|
 A2 G4 F2 | A2 GF E4 | F2 F2 E2 E2 | D2 G2 B4 | A4 G2 F2 | z2 A2 E2 G2 | D2 D2 F4- | F2 D2 ^C4 | %19
w: _ le bru-|net- * * *|te, joy- eu- se-|ment vous mon-|stre- roy- e|joy- eu- se-|ment vous mon-|* stre- roy-|
 D2 F2 F2 F2 | G2 A2 D4- | D2 D2 B4 | A8 | z4 B4 | B2 B2 A4 | G2 B2 A2 F2 | A4 B2 B2 | A2 G2 ^F4 | %28
w: e un tour jo-|ly par a-|* mou- ret-|te:|la|tri- que- ba-|bin, la tri- que-|ba- bin, la|tri- que- ba-|
 G2 B2 B2 G2 | ^F4 G2 A2 | G2 E2 G4 | D4 A4 | G4 F2 F2 | G2 B2 A4 | c2 C2 CDEF | G2 G2 G4 | %36
w: bin, la tri- que-|ba- bin, gen-|til' fil- let-|te, la|tri- que,- la|tri- que- ba-|bin, et puis _ _ _|_ de- vant,|
 z2 G2 B2 B2 | A2 G2 F3 G | A2 B4 B2 | A2 B3 B A2 | B2 B2 F4 | A4 G4 | z4 F4- | F4 E4 | F4 D4 | %45
w: je scay bien|qu'en a- vez di-|set- te, qu'en|a- vez di- set-|te, et si|n'en faits|au-|* cun|sem- blant,|
 z4 z2 G2 | B2 B2 A2 F2 | z2 G2 G2 F2 |"^b" G4 B4 | B2 B2 A4 | G2 B2 A2 F2 | A4 B2 B2 | A2 G2 ^F4 | %53
w: tout|est à vo- stre|jo- li com-|mand, la|tri- que- ba-|bin, la tri- que-|ba- bin, la|tri- que- ba-|
 G2 B2 B2 G2 | ^F4 G2 A2 | G2 E2 G4 | D4 A4 | G4 ^F2 F2 | G2 B2 A4 | c2 C2 CDEF | G2 G2 G4 | %61
w: bin, la- tri- que-|ba- bin, gen-|til' fil- let-|te, la|tri- que,- la|tri- que- ba-|bin, et puis _ _ _|_ de- vant,|
 z2 G2 B4- | B4 A4- | A2 G4 ^F2 | !fermata!G8 |] %65
w: et puis,|_ et|_ puis de-|vant.|
V:3
 z8 | d4 d2 e2 | f6 e2 | d2 c2 d4 | c4 G4 | G2 A2 B4 |"^-natural" z4 B4 |"^-natural" f2 g2 d4 | %8
w: |Si par sou-|hait, je|vous te- noy-|e si|par sou- hait,|je|vous te- noy-|
 G4 G4 | F4 G4 | d4 d4 | c2 c2 B4 | A8 | d4 A2 c2 | G4 z2 g2 | d2 f2 c2 d2- | d2 A2 c2 G2- | %17
w: e, se-|cre- te-|ment, bel-|le bru- net-|te,|joy- eu- se-|ment, joy-|eu- se- ment, joy-|* eu- se- ment|
 GABc d2 B2 | F3 G A4 | d2 d2 d2 d2 | c2 F2 G4- | G4 G4 | d8 | G8 | z8 | z2 g2 f2 d2 | f4 g2 G2 | %27
w: _ _ _ _ _ vous|mon- tre- roy-|e un tour jo-|ly par a-|* mou-|ret-|te:||la tri- que-|ba- bin, la|
 ^F2 G2 d4 | G8 | z2 d2 c2 A2 | c4 G2 g2 | f2 d2 f4 | c4 d4 | G2 G2 d4 | c4 z4 | z2 G2 GABc | %36
w: tri- que- ba-|bin,|gen- til' fil-|let- te, gen-|til' fil- let-|te, la|tri- que- ba-|bin,|et puis _ _ _|
 d2 G2 g4 | z2 c2 d4 | d2 B4 B2 | f2 g2 f4 | B4 d4 | A4 c4 | G4 A4 | B4 c4 | F4 z2 f2 | g2 a2 b4 | %46
w: _ de- vant,|je scay|bien qu'en a-|vez di- set-|te, et|si n'en|faits au-|cun sem-|blant, tout|est à vo-|
 g4 d4 | _e4 d4 | G8 | z8 | z2 g2 f2 d2 | f4 g2 G2 | ^F2 G2 d4 | G8 | z2 d2 c2 A2 | c4 G2 g2 | %56
w: stre jo-|li com-|mand,||la tri- que-|ba- bin, la|tri- que- ba-|bin,|gen- til' fil-|let- te, gen-|
 f2 d2 f4 | c4 d4 | G2 G2 d4 | c4 z4 | z2 G2 GABc | d2 G2 g4 | z4 d4 | c4 d4 | !fermata!G8 |] %65
w: til' fil- let-|te, la|tri- que- ba-|bin,|et puis _ _ _|_ de- vant,|et|puis de-|vant.|

